X:1
L:1/4
Q:1/4=120
M:3/4
K:Cdor
""^Moderate"" f c e | d B d | c A c | e3 | e f e | d2 c | f c e | d B d | c A c | f3 | f g f | 
 =e2 c || f c B | A2 B | c3 | e3/2 f/ e | d2 c | f c B | A2 B | c3 | f3 | f g f | =e2 c || A2 c | 
 G2 c | F2 c | e3 | e f e | d2 c | A2 c | G2 c | F2 c | f3 | f g f | =e2 c ||
